X:2322
T:Gorbachevs' Farewell To Lithuania
O:england
M:4/4
L:1/8
Q:200
C:Andy Cleveland 1990
R:Reel
N:With Swing
K:Dm
dD (3DDD FEDF|E2 ^CEB,E ^CE|dD (3DDD FEDF|EFGE FDD2|
dD (3DDD FEDF|E2 ^CEB,E ^CE|_E2 cE dE cE|E2 ^CE FDD^c|
|dD (3DDD FEDF|E2 ^CEB,E ^CE|dD (3DDD FEDF|EFGE FDD2|
dD (3DDD cDBD|AD (3DDD ED^CD|_E2 cE dE cE|E2 ^CE FDD^c||
|:dfaf ^cfaf|cfaf gfeg|f2df^cf ^cf|cfaf g2fg|afge fded|^ca=Ba ^caAa|
dA^FA=B2GB|A^ceg fdd^c:|


